app/assets/img/ic-seniors.svg

<svg height="250" viewBox="0 0 250 250" width="250" xmlns="http://www.w3.org/2000/svg"><path d="m38.2096774 48.4235294c-11.6290322-3.6235294-18.6064516-17.1294118-14.9516129-28.9882353 3.9870968-12.51764704 16.9451613-19.10588233 29.9032258-15.15294116 12.2935484 3.95294118 18.9387097 16.79999996 14.9516129 29.31764706-3.6548387 12.5176471-16.9451613 19.1058824-29.9032258 14.8235294zm-28.90645159 55.9999996c.33225806 0 .66451613-.329411.99677419-.658823 0-.658824.3322581-1.317647.3322581-1.976471 1.3290322-3.9529409 4.3193548-5.9294115 8.6387096-6.2588232.9967742 0 1.9935484 0 2.6580646-.3294118 3.3225806-.3294118 6.3129032-.6588235 9.3032258-1.6470588 5.316129-1.6470588 9.9677419-4.6117647 13.6225806-8.5647059.3322581-.6588235.9967742-.9882353 1.3290323-1.6470588.9967742-.9882353 1.9935484-2.3058824 2.6580645-3.2941177 1.9935484-2.9647059 3.3225806-6.2588235 3.9870968-9.8823529.6645161-3.9529412-1.3290323-7.9058824.332258-11.5294118.9967742-2.9647059 3.9870968-5.2705882 6.9774194-6.2588235 5.9806451-1.9764706 12.6258064.9882353 16.6129032 5.6 7.9741936 9.8823529 13.9548387 21.4117647 18.2741936 33.2705882 3.6548387 9.5529412 6.3129035 19.7647062 6.9774195 29.9764702.664516 9.882353.664516 21.082353-3.987097 29.976471-3.6548387 6.588235-9.3032258 7.905882-16.2806451 8.564706-.3322581.988235-.3322581 1.97647-.3322581 3.294118v10.870588c0 4.611764 0 9.223529-.3322581 13.835294 0 4.282353-.9967742 9.552941-3.3225806 13.505882-1.6612903 2.635294-3.6548387 4.611765-6.9774194 5.6-17.6096774 3.952941-15.616129-28.329412-15.616129-37.223529 0-2.305883 0-4.941177 0-7.247059 0-.988235 0-1.976471-.3322581-2.635294-4.3193548-.329412-7.6419354-.988235-9.9677419-1.647059-1.6612903-.329412-2.9903226-.329412-4.3193548-.658823-2.6580645-.329412-3.9870968-3.294118-2.6580645-5.6 4.9838709-9.882353 8.3064516-21.082353 10.3-30.635295 1.3290322-5.6 1.9935483-10.541176 2.6580645-14.164705-.3322581-.658824-.6645162-1.317648-1.3290323-.988236-4.983871 3.952941-11.2967742 5.6-17.6096774 6.258824-5.6483871.658823-13.2903226 1.97647-17.9419355-.988236-.9967742-.658823-1.6612903-1.317647-2.3258064-2.305882-.6645162 0-1.3290323.658824-1.99354843 1.647059-1.32903226 1.976471-.33225806 4.611765.66451613 6.588235.9967742 1.647059 3.3225806 3.294118 3.3225806 5.270588v68.517648c0 1.97647-1.3290322 3.623529-3.3225806 3.623529-1.99354839.329412-3.98709677-1.317647-3.98709677-3.623529 0 0 0-33.6 0-49.411765 0-8.564706-.33225807-17.129412-2.99032258-25.364706-1.66129033-4.941177.99677419-9.552941 5.98064516-11.858824z" transform="translate(74 20)"/></svg>

<svg xmlns="http://www.w3.org/2000/svg" width="250" height="250" viewBox="0 0 250 250">
  <g fill="#000000" transform="translate(74 20)">
    <path d="M38.2096774 48.4235294C26.5806452 44.8 19.6032258 31.2941176 23.2580645 19.4352941 27.2451613 6.91764706 40.2032258.329411765 53.1612903 4.28235294 65.4548387 8.23529412 72.1 21.0823529 68.1129032 33.6 64.4580645 46.1176471 51.1677419 52.7058824 38.2096774 48.4235294zM9.30322581 104.423529C9.63548387 104.423529 9.96774194 104.094118 10.3 103.764706 10.3 103.105882 10.6322581 102.447059 10.6322581 101.788235 11.9612903 97.8352941 14.9516129 95.8588235 19.2709677 95.5294118 20.2677419 95.5294118 21.2645161 95.5294118 21.9290323 95.2 25.2516129 94.8705882 28.2419355 94.5411765 31.2322581 93.5529412 36.5483871 91.9058824 41.2 88.9411765 44.8548387 84.9882353 45.1870968 84.3294118 45.8516129 84 46.183871 83.3411765 47.1806452 82.3529412 48.1774194 81.0352941 48.8419355 80.0470588 50.8354839 77.0823529 52.1645161 73.7882353 52.8290323 70.1647059 53.4935484 66.2117647 51.5 62.2588235 53.1612903 58.6352941 54.1580645 55.6705882 57.1483871 53.3647059 60.1387097 52.3764706 66.1193548 50.4 72.7645161 53.3647059 76.7516129 57.9764706 84.7258065 67.8588235 90.7064516 79.3882353 95.0258065 91.2470588 98.6806452 100.8 101.33871 111.011765 102.003226 121.223529 102.667742 131.105882 102.667742 142.305882 98.016129 151.2 94.3612903 157.788235 88.7129032 159.105882 81.7354839 159.764706 81.4032258 160.752941 81.4032258 161.741176 81.4032258 163.058824 81.4032258 166.682353 81.4032258 170.305882 81.4032258 173.929412 81.4032258 178.541176 81.4032258 183.152941 81.0709677 187.764706 81.0709677 192.047059 80.0741935 197.317647 77.7483871 201.270588 76.0870968 203.905882 74.0935484 205.882353 70.7709677 206.870588 53.1612903 210.823529 55.1548387 178.541176 55.1548387 169.647059 55.1548387 167.341176 55.1548387 164.705882 55.1548387 162.4 55.1548387 161.411765 55.1548387 160.423529 54.8225806 159.764706 50.5032258 159.435294 47.1806452 158.776471 44.8548387 158.117647 43.1935484 157.788235 41.8645161 157.788235 40.5354839 157.458824 37.8774194 157.129412 36.5483871 154.164706 37.8774194 151.858824 42.8612903 141.976471 46.183871 130.776471 48.1774194 121.223529 49.5064516 115.623529 50.1709677 110.682353 50.8354839 107.058824 50.5032258 106.4 50.1709677 105.741176 49.5064516 106.070588 44.5225806 110.023529 38.2096774 111.670588 31.8967742 112.329412 26.2483871 112.988235 18.6064516 114.305882 13.9548387 111.341176 12.9580645 110.682353 12.2935484 110.023529 11.6290323 109.035294 10.9645161 109.035294 10.3 109.694118 9.63548387 110.682353 8.30645161 112.658824 9.30322581 115.294118 10.3 117.270588 11.2967742 118.917647 13.6225806 120.564706 13.6225806 122.541176L13.6225806 191.058824C13.6225806 193.035294 12.2935484 194.682353 10.3 194.682353 8.30645161 195.011765 6.31290323 193.364706 6.31290323 191.058824 6.31290323 191.058824 6.31290323 157.458824 6.31290323 141.647059 6.31290323 133.082353 5.98064516 124.517647 3.32258065 116.282353 1.66129032 111.341176 4.31935484 106.729412 9.30322581 104.423529z"/>
  </g>
</svg>
